X:605
T:Breton Tune
S:Stramash, Dec 2003
Z:Nigel Gatherer
L:1/8
M:4/4
K:Em
B2 BA B2 BA | dBAF  DEFA     | B2 BA B2 BA | dBAF E4 :|
deef  g2 fe | d2 Bd AD (3FGA | Beef  g2 fe | dBAF E4  |
Beef  g2 fe | d2 Bd AD (3FGA | Beed  B^cdB | AFDF E4 |]
